;FLAVOR:Marlin
;TIME:6089
;Filament used: 3.84646m
;Layer height: 0.2
;MINX:39.451
;MINY:40.2
;MINZ:0.2
;MAXX:180.549
;MAXY:120.299
;MAXZ:10
;Generated with Cura_SteamEngine 5.3.0
M140 S60
M105
M190 S60
M104 S200
M105
M109 S200
M82 ;absolute extrusion mode
; Ender 3 Custom Start G-code
G92 E0 ; Reset Extruder
G28 ; Home all axes
G29 ; Level bed
G1 Z2.0 F3000 ; Move Z Axis up little to prevent scratching of Heat Bed
G1 X0.1 Y20 Z0.3 F5000.0 ; Move to start position
G1 X0.1 Y200.0 Z0.3 F1500.0 E15 ; Draw the first line
G1 X0.4 Y200.0 Z0.3 F5000.0 ; Move to side a little
G1 X0.4 Y20 Z0.3 F1500.0 E30 ; Draw the second line
G92 E0 ; Reset Extruder
G1 Z2.0 F3000 ; Move Z Axis up little to prevent scratching of Heat Bed
G1 X5 Y20 Z0.3 F5000.0 ; Move over to prevent blob squish
G92 E0
G92 E0
G1 F1500 E-6.5
;LAYER_COUNT:50
;LAYER:0
M107
G0 F6000 X44.059 Y44.363 Z0.2
;TYPE:SKIRT
G1 F1500 E0
G1 F1200 X44.753 Y43.769 E0.03038
G1 X45.159 Y43.452 E0.04752
G1 X45.894 Y42.929 E0.07752
G1 X46.674 Y42.472 E0.10759
G1 X47.392 Y42.128 E0.13407
G1 X47.862 Y41.925 E0.15109
G1 X48.706 Y41.604 E0.18113
G1 X49.575 Y41.359 E0.21116
G1 X50.446 Y41.194 E0.24064
G1 X50.999 Y41.114 E0.25923
G1 X52.13 Y41.014 E0.29699
G1 X52.707 Y41.001 E0.31619
G1 X166.848 Y41 E4.11253
G1 X167.762 Y41.012 E4.14293
G1 X168.664 Y41.065 E4.17299
G1 X169.142 Y41.126 E4.18901
G1 X169.565 Y41.19 E4.20324
G1 X170.451 Y41.364 E4.23327
G1 X171.318 Y41.616 E4.2633
G1 X171.817 Y41.8 E4.28099
G1 X172.301 Y41.993 E4.29832
G1 X173.124 Y42.365 E4.32836
G1 X173.911 Y42.807 E4.35838
G1 X174.624 Y43.294 E4.3871
G1 X175.042 Y43.606 E4.40445
G1 X175.741 Y44.178 E4.43449
G1 X176.387 Y44.809 E4.46453
G1 X176.979 Y45.5 E4.49479
G1 X177.297 Y45.907 E4.51197
G1 X177.821 Y46.643 E4.54202
G1 X178.277 Y47.422 E4.57204
G1 X178.627 Y48.152 E4.59897
G1 X178.829 Y48.621 E4.61595
G1 X179.149 Y49.466 E4.64601
G1 X179.393 Y50.335 E4.67603
G1 X179.556 Y51.193 E4.70507
G1 X179.636 Y51.745 E4.72363
G1 X179.736 Y52.88 E4.76152
G1 X179.749 Y53.457 E4.78072
G1 X179.749 Y106.744 E6.55305
G1 X179.738 Y107.511 E6.57856
G1 X179.685 Y108.413 E6.60862
G1 X179.564 Y109.293 E6.63816
G1 X179.391 Y110.179 E6.66819
G1 X179.141 Y111.047 E6.69823
G1 X178.949 Y111.568 E6.7167
G1 X178.755 Y112.054 E6.7341
G1 X178.384 Y112.878 E6.76416
G1 X177.941 Y113.665 E6.7942
G1 X177.456 Y114.374 E6.82277
G1 X177.144 Y114.792 E6.84012
G1 X176.572 Y115.491 E6.87016
G1 X175.941 Y116.137 E6.90019
G1 X175.247 Y116.731 E6.93057
G1 X174.841 Y117.048 E6.94771
G1 X174.106 Y117.571 E6.97771
G1 X173.326 Y118.028 E7.00778
G1 X172.608 Y118.372 E7.03426
G1 X172.138 Y118.575 E7.05129
G1 X171.294 Y118.896 E7.08132
G1 X170.425 Y119.141 E7.11135
G1 X169.554 Y119.306 E7.14083
G1 X169.001 Y119.386 E7.15942
G1 X167.87 Y119.486 E7.19718
G1 X167.293 Y119.499 E7.21638
G1 X53.006 Y119.499 E11.01758
G1 X52.238 Y119.488 E11.04313
G1 X51.336 Y119.435 E11.07318
G1 X50.858 Y119.374 E11.0892
G1 X50.435 Y119.31 E11.10343
G1 X49.549 Y119.136 E11.13347
G1 X48.682 Y118.884 E11.1635
G1 X48.183 Y118.7 E11.18118
G1 X47.699 Y118.507 E11.19852
G1 X46.876 Y118.135 E11.22855
G1 X46.089 Y117.693 E11.25858
G1 X45.376 Y117.206 E11.28729
G1 X44.958 Y116.894 E11.30464
G1 X44.259 Y116.322 E11.33468
G1 X43.613 Y115.691 E11.36472
G1 X43.021 Y115 E11.39498
G1 X42.703 Y114.593 E11.41216
G1 X42.179 Y113.857 E11.44221
G1 X41.723 Y113.078 E11.47223
G1 X41.373 Y112.348 E11.49916
G1 X41.171 Y111.879 E11.51614
G1 X40.851 Y111.034 E11.5462
G1 X40.607 Y110.165 E11.57622
G1 X40.444 Y109.304 E11.60536
G1 X40.364 Y108.751 E11.62395
G1 X40.264 Y107.6 E11.66237
G1 X40.251 Y107.027 E11.68144
G1 X40.251 Y53.756 E13.45324
G1 X40.262 Y52.99 E13.47872
G1 X40.315 Y52.088 E13.50877
G1 X40.372 Y51.633 E13.52402
G1 X40.435 Y51.21 E13.53825
G1 X40.608 Y50.324 E13.56827
G1 X40.858 Y49.456 E13.59831
G1 X41.051 Y48.932 E13.61689
G1 X41.245 Y48.446 E13.63429
G1 X41.616 Y47.622 E13.66435
G1 X42.059 Y46.835 E13.69439
G1 X42.544 Y46.126 E13.72296
G1 X42.856 Y45.708 E13.74031
G1 X43.428 Y45.009 E13.77035
G1 X44.059 Y44.363 E13.80038
G0 F6000 X43.773 Y44.083
G1 F1200 X44.507 Y43.454 E13.83253
G1 X44.927 Y43.126 E13.85026
G1 X45.662 Y42.603 E13.88026
G1 X46.501 Y42.111 E13.91261
G1 X47.233 Y41.761 E13.9396
G1 X47.72 Y41.551 E13.95723
G1 X48.597 Y41.219 E13.98842
G1 X49.466 Y40.974 E14.01845
G1 X50.389 Y40.798 E14.04971
G1 X50.942 Y40.718 E14.06829
G1 X52.121 Y40.614 E14.10766
G1 X52.707 Y40.601 E14.12715
G1 X166.853 Y40.6 E17.92366
G1 X167.785 Y40.613 E17.95466
G1 X168.715 Y40.668 E17.98565
G1 X169.642 Y40.797 E18.01678
G1 X170.528 Y40.971 E18.04681
G1 X171.43 Y41.232 E18.07804
G1 X171.965 Y41.428 E18.09699
G1 X172.449 Y41.621 E18.11432
G1 X173.32 Y42.016 E18.14613
G1 X174.107 Y42.458 E18.17615
G1 X174.863 Y42.973 E18.20658
G1 X175.295 Y43.296 E18.22452
G1 X176.021 Y43.892 E18.25576
G1 X176.667 Y44.523 E18.2858
G1 X177.294 Y45.254 E18.31783
G1 X177.623 Y45.675 E18.3356
G1 X178.147 Y46.411 E18.36565
G1 X178.638 Y47.249 E18.39795
G1 X178.988 Y47.979 E18.42488
G1 X179.203 Y48.479 E18.44298
G1 X179.523 Y49.324 E18.47303
G1 X179.786 Y50.26 E18.50537
G1 X179.952 Y51.136 E18.53503
G1 X180.032 Y51.688 E18.55358
G1 X180.136 Y52.871 E18.59308
G1 X180.149 Y53.448 E18.61227
G1 X180.149 Y106.75 E20.3851
G1 X180.137 Y107.534 E20.41118
G1 X180.081 Y108.467 E20.44227
G1 X179.957 Y109.37 E20.47259
G1 X179.784 Y110.256 E20.50261
G1 X179.525 Y111.158 E20.53382
G1 X179.32 Y111.716 E20.5536
G1 X179.12 Y112.218 E20.57157
G1 X178.733 Y113.074 E20.60281
G1 X178.29 Y113.861 E20.63285
G1 X177.777 Y114.613 E20.66313
G1 X177.454 Y115.045 E20.68107
G1 X176.858 Y115.771 E20.71231
G1 X176.227 Y116.417 E20.74235
G1 X175.493 Y117.046 E20.7745
G1 X175.073 Y117.374 E20.79222
G1 X174.338 Y117.897 E20.82222
G1 X173.499 Y118.389 E20.85457
G1 X172.767 Y118.739 E20.88156
G1 X172.28 Y118.949 E20.8992
G1 X171.403 Y119.281 E20.93039
G1 X170.534 Y119.526 E20.96042
G1 X169.611 Y119.702 E20.99167
G1 X169.058 Y119.782 E21.01025
G1 X167.879 Y119.886 E21.04962
G1 X167.302 Y119.899 E21.06882
G1 X53 Y119.899 E24.87052
G1 X52.215 Y119.887 E24.89663
G1 X51.285 Y119.832 E24.92761
G1 X50.358 Y119.703 E24.95874
G1 X49.472 Y119.529 E24.98878
G1 X48.57 Y119.268 E25.02001
G1 X48.035 Y119.072 E25.03896
G1 X47.551 Y118.879 E25.05629
G1 X46.68 Y118.484 E25.0881
G1 X45.893 Y118.042 E25.11812
G1 X45.137 Y117.527 E25.14854
G1 X44.705 Y117.204 E25.16648
G1 X43.979 Y116.608 E25.19773
G1 X43.333 Y115.977 E25.22776
G1 X42.706 Y115.246 E25.25979
G1 X42.377 Y114.825 E25.27756
G1 X41.853 Y114.089 E25.30761
G1 X41.362 Y113.251 E25.33992
G1 X41.012 Y112.521 E25.36684
G1 X40.797 Y112.021 E25.38495
G1 X40.477 Y111.176 E25.415
G1 X40.214 Y110.239 E25.44737
G1 X40.048 Y109.361 E25.47709
G1 X39.968 Y108.808 E25.49567
G1 X39.864 Y107.609 E25.5357
G1 X39.851 Y107.036 E25.55476
G1 X39.851 Y53.75 E27.32706
G1 X39.863 Y52.967 E27.35311
G1 X39.918 Y52.038 E27.38406
G1 X39.976 Y51.574 E27.39961
G1 X40.042 Y51.133 E27.41444
G1 X40.215 Y50.247 E27.44447
G1 X40.474 Y49.345 E27.47568
G1 X40.68 Y48.784 E27.49556
G1 X40.88 Y48.282 E27.51353
G1 X41.267 Y47.426 E27.54478
G1 X41.71 Y46.639 E27.57482
G1 X42.223 Y45.887 E27.60509
G1 X42.546 Y45.455 E27.62303
G1 X43.142 Y44.729 E27.65427
G1 X43.773 Y44.083 E27.68431
G0 F6000 X43.487 Y43.803
G1 F1200 X44.261 Y43.139 E27.71823
G1 X44.695 Y42.8 E27.73654
G1 X45.43 Y42.277 E27.76655
G1 X46.328 Y41.75 E27.80118
G1 X47.06 Y41.4 E27.82817
G1 X47.578 Y41.177 E27.84692
G1 X48.488 Y40.834 E27.87927
G1 X49.391 Y40.581 E27.91046
G1 X50.332 Y40.402 E27.94232
G1 X50.885 Y40.322 E27.9609
G1 X52.112 Y40.214 E28.00187
G1 X52.707 Y40.201 E28.02166
G1 X166.859 Y40.2 E31.81838
G1 X167.809 Y40.214 E31.84998
G1 X168.77 Y40.272 E31.882
G1 X169.719 Y40.404 E31.91386
G1 X170.605 Y40.578 E31.9439
G1 X171.568 Y40.856 E31.97723
G1 X172.113 Y41.056 E31.99654
G1 X172.597 Y41.249 E32.01387
G1 X173.516 Y41.667 E32.04745
G1 X174.332 Y42.127 E32.07861
G1 X175.103 Y42.653 E32.10965
G1 X175.549 Y42.987 E32.12818
G1 X176.301 Y43.606 E32.16058
G1 X176.947 Y44.237 E32.19061
G1 X177.609 Y45.008 E32.22441
G1 X177.949 Y45.443 E32.24278
G1 X178.473 Y46.179 E32.27283
G1 X178.999 Y47.076 E32.30741
G1 X179.349 Y47.806 E32.33434
G1 X179.577 Y48.337 E32.35356
G1 X179.897 Y49.182 E32.38361
G1 X180.179 Y50.186 E32.4183
G1 X180.348 Y51.079 E32.44852
G1 X180.428 Y51.631 E32.46708
G1 X180.536 Y52.862 E32.50818
G1 X180.549 Y53.439 E32.52737
G1 X180.549 Y106.756 E34.3007
G1 X180.536 Y107.558 E34.32738
G1 X180.477 Y108.521 E34.35947
G1 X180.35 Y109.447 E34.39056
G1 X180.177 Y110.333 E34.42058
G1 X179.9 Y111.296 E34.45391
G1 X179.692 Y111.864 E34.47403
G1 X179.492 Y112.366 E34.492
G1 X179.082 Y113.27 E34.52502
G1 X178.639 Y114.057 E34.55506
G1 X178.097 Y114.853 E34.58709
G1 X177.763 Y115.299 E34.60562
G1 X177.144 Y116.051 E34.63801
G1 X176.513 Y116.697 E34.66805
G1 X175.739 Y117.361 E34.70197
G1 X175.305 Y117.7 E34.72028
G1 X174.57 Y118.223 E34.75029
G1 X173.672 Y118.75 E34.78492
G1 X172.94 Y119.1 E34.8119
G1 X172.422 Y119.323 E34.83066
G1 X171.512 Y119.666 E34.86301
G1 X170.609 Y119.919 E34.8942
G1 X169.668 Y120.098 E34.92606
G1 X169.115 Y120.178 E34.94464
G1 X167.888 Y120.286 E34.98561
G1 X167.311 Y120.299 E35.0048
G1 X52.994 Y120.299 E38.807
G1 X52.191 Y120.286 E38.83371
G1 X51.23 Y120.228 E38.86574
G1 X50.281 Y120.096 E38.8976
G1 X49.395 Y119.922 E38.92764
G1 X48.432 Y119.644 E38.96097
G1 X47.887 Y119.444 E38.98028
G1 X47.403 Y119.251 E38.99761
G1 X46.484 Y118.833 E39.03119
G1 X45.668 Y118.373 E39.06235
G1 X44.897 Y117.847 E39.09339
G1 X44.451 Y117.513 E39.11192
G1 X43.699 Y116.894 E39.14432
G1 X43.053 Y116.263 E39.17435
G1 X42.391 Y115.492 E39.20815
G1 X42.051 Y115.057 E39.22652
G1 X41.527 Y114.321 E39.25656
G1 X41.001 Y113.424 E39.29115
G1 X40.651 Y112.694 E39.31808
G1 X40.423 Y112.163 E39.3373
G1 X40.103 Y111.318 E39.36735
G1 X39.821 Y110.313 E39.40207
G1 X39.652 Y109.418 E39.43236
G1 X39.569 Y108.843 E39.45168
G1 X39.465 Y107.644 E39.49171
G1 X39.451 Y107.045 E39.51164
G1 X39.451 Y53.744 E41.28444
G1 X39.464 Y52.943 E41.31108
G1 X39.521 Y51.988 E41.3429
G1 X39.58 Y51.515 E41.35876
G1 X39.649 Y51.056 E41.3742
G1 X39.822 Y50.17 E41.40422
G1 X40.099 Y49.207 E41.43755
G1 X40.308 Y48.636 E41.45777
G1 X40.508 Y48.134 E41.47575
G1 X40.918 Y47.23 E41.50876
G1 X41.361 Y46.443 E41.5388
G1 X41.903 Y45.647 E41.57083
G1 X42.237 Y45.201 E41.58936
G1 X42.856 Y44.449 E41.62176
G1 X43.487 Y43.803 E41.65179
G1 F1500 E35.15179
;MESH:PicoDebuggerMount.stl(1)
G0 F6000 X52.846 Y53.594
G0 X55.055 Y57.334
;TYPE:WALL-INNER
G1 F1500 E41.65179
G1 F1200 X54.5 Y57.405 E41.6704
G1 X53.945 Y57.334 E41.68901
G1 X53.422 Y57.115 E41.70787
G1 X52.972 Y56.773 E41.72667
G1 X52.635 Y56.327 E41.74526
G1 X52.417 Y55.807 E41.76401
G1 X52.345 Y55.25 E41.78269
G1 X52.416 Y54.695 E41.8013
G1 X52.634 Y54.173 E41.82012
G1 X52.973 Y53.723 E41.83886
G1 X53.423 Y53.384 E41.8576
G1 X53.943 Y53.167 E41.87634
G1 X54.5 Y53.095 E41.89502
G1 X55.055 Y53.166 E41.91363
G1 X55.577 Y53.385 E41.93246
G1 X56.025 Y53.723 E41.95112
G1 X56.365 Y54.173 E41.96988
G1 X56.584 Y54.695 E41.98871
G1 X56.655 Y55.25 E42.00732
G1 X56.584 Y55.803 E42.02586
G1 X56.352 Y56.348 E42.04556
G1 X56.024 Y56.78 E42.0636
G1 X55.574 Y57.112 E42.0822
G1 X55.055 Y57.334 E42.10098
G1 F1500 E35.60098
G0 F6000 X55.071 Y57.432
G0 X54.499 Y57.586
G0 X54.499 Y102.914
G0 X55.057 Y107.333
G1 F1500 E42.10098
G1 F1200 X54.5 Y107.405 E42.11966
G1 X53.945 Y107.334 E42.13827
G1 X53.423 Y107.116 E42.15708
G1 X52.973 Y106.777 E42.17582
G1 X52.634 Y106.327 E42.19456
G1 X52.417 Y105.807 E42.2133
G1 X52.345 Y105.25 E42.23198
G1 X52.416 Y104.695 E42.25059
G1 X52.635 Y104.173 E42.26942
G1 X52.973 Y103.725 E42.28808
G1 X53.423 Y103.385 E42.30684
G1 X53.945 Y103.166 E42.32567
G1 X54.5 Y103.095 E42.34428
G1 X55.055 Y103.166 E42.36289
G1 X55.574 Y103.388 E42.38167
G1 X56.028 Y103.726 E42.40049
G1 X56.352 Y104.152 E42.41829
G1 X56.584 Y104.697 E42.43799
G1 X56.655 Y105.25 E42.45654
G1 X56.584 Y105.805 E42.47515
G1 X56.365 Y106.328 E42.494
G1 X56.023 Y106.778 E42.5128
G1 X55.577 Y107.115 E42.5314
G1 X55.057 Y107.333 E42.55015
G1 F1500 E36.05015
G0 F6000 X55.072 Y107.432
G0 X56.152 Y106.907
G0 X58.516 Y101.981
G0 X161.541 Y101.8
G1 F1500 E42.55015
G1 F1200 X58.523 Y101.8 E45.97654
G1 X58.283 Y101.738 E45.98479
G1 X58.072 Y101.563 E45.9939
G1 X57.951 Y101.291 E46.00381
G1 X57.951 Y59.209 E47.40346
G1 X58.072 Y58.937 E47.41336
G1 X58.283 Y58.762 E47.42248
G1 X58.523 Y58.7 E47.43072
G1 X161.541 Y58.7 E50.85712
G1 X161.718 Y58.762 E50.86335
G1 X161.928 Y58.936 E50.87242
G1 X162.05 Y59.209 E50.88237
G1 X162.05 Y101.291 E52.28202
G1 X161.988 Y101.468 E52.28826
G1 X161.814 Y101.678 E52.29733
G1 X161.541 Y101.8 E52.30728
G1 F1500 E45.80728
G0 F6000 X161.8 Y101.899
G0 X163.845 Y103.595
G0 X164.945 Y107.334
G1 F1500 E52.30728
G1 F1200 X164.423 Y107.115 E52.3261
G1 X163.975 Y106.777 E52.34477
G1 X163.635 Y106.327 E52.36353
G1 X163.416 Y105.805 E52.38236
G1 X163.345 Y105.25 E52.40097
G1 X163.416 Y104.695 E52.41958
G1 X163.638 Y104.176 E52.43835
G1 X163.974 Y103.724 E52.45708
G1 X164.426 Y103.388 E52.47582
G1 X164.945 Y103.166 E52.49459
G1 X165.5 Y103.095 E52.5132
G1 X166.055 Y103.166 E52.53181
G1 X166.578 Y103.385 E52.55067
G1 X167.025 Y103.725 E52.56935
G1 X167.365 Y104.172 E52.58803
G1 X167.585 Y104.698 E52.60699
G1 X167.65 Y105.25 E52.62548
G1 X167.584 Y105.805 E52.64407
G1 X167.365 Y106.329 E52.66296
G1 X167.024 Y106.775 E52.68163
G1 X166.578 Y107.115 E52.70028
G1 X166.057 Y107.333 E52.71907
G1 X165.5 Y107.405 E52.73775
G1 X164.945 Y107.334 E52.75636
G1 F1500 E46.25636
G0 F6000 X164.93 Y107.433
G0 X166.67 Y107.273
G0 X166.668 Y108.519
G0 X167.917 Y108.646
G1 F1500 E52.75636
G1 F1200 X168.241 Y108.512 E52.76802
G1 X168.534 Y108.285 E52.78034
G1 X168.758 Y107.993 E52.79259
G1 X168.895 Y107.663 E52.80447
G1 X168.95 Y107.258 E52.81806
G1 X168.95 Y53.244 E54.61458
G1 X168.896 Y52.833 E54.62836
G1 X168.762 Y52.509 E54.64003
G1 X168.535 Y52.216 E54.65235
G1 X168.243 Y51.992 E54.66459
G1 X167.913 Y51.855 E54.67648
G1 X167.508 Y51.801 E54.69007
G1 X52.494 Y51.8 E58.51545
G1 X52.083 Y51.854 E58.52924
G1 X51.759 Y51.988 E58.5409
G1 X51.466 Y52.215 E58.55322
G1 X51.242 Y52.507 E58.56547
G1 X51.105 Y52.837 E58.57735
G1 X51.051 Y53.242 E58.59094
G1 X51.05 Y107.252 E60.38732
G1 X51.105 Y107.668 E60.40128
G1 X51.238 Y107.991 E60.41289
G1 X51.465 Y108.284 E60.42522
G1 X51.757 Y108.508 E60.43746
G1 X52.087 Y108.645 E60.44935
G1 X52.492 Y108.699 E60.46294
G1 X167.506 Y108.7 E64.28832
G1 X167.917 Y108.646 E64.3021
G1 F1500 E57.8021
G0 F6000 X167.859 Y108.553
G0 X168.14 Y108.337
G0 X165.499 Y57.586
G0 X164.945 Y57.334
G1 F1500 E64.3021
G1 F1200 X164.426 Y57.112 E64.32088
G1 X163.974 Y56.776 E64.33961
G1 X163.638 Y56.324 E64.35834
G1 X163.416 Y55.805 E64.37712
G1 X163.345 Y55.25 E64.39573
G1 X163.416 Y54.695 E64.41434
G1 X163.635 Y54.173 E64.43317
G1 X163.975 Y53.723 E64.45192
G1 X164.423 Y53.385 E64.47059
G1 X164.943 Y53.167 E64.48934
G1 X165.5 Y53.095 E64.50802
G1 X166.055 Y53.166 E64.52663
G1 X166.579 Y53.385 E64.54552
G1 X167.025 Y53.726 E64.5642
G1 X167.365 Y54.172 E64.58285
G1 X167.585 Y54.698 E64.60181
G1 X167.65 Y55.25 E64.6203
G1 X167.584 Y55.805 E64.63889
G1 X167.365 Y56.328 E64.65775
G1 X167.025 Y56.775 E64.67643
G1 X166.578 Y57.115 E64.69511
G1 X166.055 Y57.334 E64.71396
G1 X165.5 Y57.405 E64.73257
G1 X164.945 Y57.334 E64.75118
G0 F6000 X165.048 Y56.944
;TYPE:WALL-OUTER
G1 F1200 X164.623 Y56.766 E64.76651
G1 X164.274 Y56.501 E64.78108
G1 X163.985 Y56.128 E64.79678
G1 X163.814 Y55.718 E64.81155
G1 X163.749 Y55.251 E64.82724
G1 X163.806 Y54.798 E64.84242
G1 X163.984 Y54.373 E64.85775
G1 X164.258 Y54.011 E64.87285
G1 X164.623 Y53.734 E64.88809
G1 X165.066 Y53.554 E64.90399
G1 X165.5 Y53.499 E64.91854
G1 X165.952 Y53.556 E64.93369
G1 X166.378 Y53.735 E64.94906
G1 X166.739 Y54.011 E64.96418
G1 X167.015 Y54.372 E64.97929
G1 X167.194 Y54.799 E64.99469
G1 X167.25 Y55.25 E65.00981
G1 X167.196 Y55.684 E65.02435
G1 X167.016 Y56.127 E65.04026
G1 X166.74 Y56.49 E65.05542
G1 X166.377 Y56.766 E65.07059
G1 X165.952 Y56.944 E65.08591
G1 X165.5 Y57.001 E65.10107
G1 X165.048 Y56.944 E65.11622
G1 F1500 E58.61622
